dist/img/svg/ic_edit.svg

<svg width="32" height="32" viewBox="0 0 32 32" fill="none" xmlns="http://www.w3.org/2000/svg">
<path d="M20.474 9.40801L22.592 11.525L20.474 9.40801ZM21.836 7.54301L16.109 13.27C15.8131 13.5655 15.6113 13.942 15.529 14.352L15 17L17.648 16.47C18.058 16.388 18.434 16.187 18.73 15.891L24.457 10.164C24.6291 9.99191 24.7656 9.7876 24.8588 9.56275C24.9519 9.33789 24.9998 9.09689 24.9998 8.85351C24.9998 8.61013 24.9519 8.36913 24.8588 8.14427C24.7656 7.91942 24.6291 7.71511 24.457 7.54301C24.2849 7.37091 24.0806 7.2344 23.8557 7.14126C23.6309 7.04812 23.3899 7.00018 23.1465 7.00018C22.9031 7.00018 22.6621 7.04812 22.4373 7.14126C22.2124 7.2344 22.0081 7.37091 21.836 7.54301V7.54301Z" stroke="#008FD6" stroke-width="2" stroke-linecap="round" stroke-linejoin="round"/>
<path d="M23 19V22C23 22.5304 22.7893 23.0391 22.4142 23.4142C22.0391 23.7893 21.5304 24 21 24H10C9.46957 24 8.96086 23.7893 8.58579 23.4142C8.21071 23.0391 8 22.5304 8 22V11C8 10.4696 8.21071 9.96086 8.58579 9.58579C8.96086 9.21071 9.46957 9 10 9H13" stroke="#008FD6" stroke-width="2" stroke-linecap="round" stroke-linejoin="round"/>
</svg>

<svg width="32" height="32" viewBox="0 0 32 32" fill="none" xmlns="http://www.w3.org/2000/svg"><path d="M20.474 9.408l2.118 2.117-2.118-2.117zm1.362-1.865l-5.727 5.727a2.118 2.118 0 00-.58 1.082L15 17l2.648-.53c.41-.082.786-.283 1.082-.579l5.727-5.727a1.854 1.854 0 00-2.621-2.621v0z" stroke="#008FD6" stroke-width="2" stroke-linecap="round" stroke-linejoin="round"/><path d="M23 19v3a2 2 0 01-2 2H10a2 2 0 01-2-2V11a2 2 0 012-2h3" stroke="#008FD6" stroke-width="2" stroke-linecap="round" stroke-linejoin="round"/></svg>
